icons/24x24_books_outline.svg

<svg xmlns="http://www.w3.org/2000/svg" width="24" height="24" viewBox="0 0 24 24">
  <path d="M13.3839746,8.23686028 L18.8839746,17.7631397 L20.6160254,16.7631397 L15.1160254,7.23686028 L13.3839746,8.23686028 Z M21.787859,18.3840729 C21.9207715,18.5538474 22,18.7676713 22,19 C22,19.5522847 21.5522847,20 21,20 L3,20 C2.44771525,20 2,19.5522847 2,19 C2,18.4477153 2.44771525,18 3,18 L3,9 C3,7.8954305 3.8954305,7 5,7 L7,7 L7,5 C7,3.8954305 7.8954305,3 9,3 L12,3 C13.1045695,3 14,3.8954305 14,5 L14,5.57179677 L14.1160254,5.50480947 C15.0726107,4.95252472 16.2957915,5.28027503 16.8480762,6.23686028 L22.3480762,15.7631397 C22.8658632,16.6599732 22.610122,17.7911373 21.787859,18.3840729 Z M16.7113249,18 L14,13.3038476 L14,18 L16.7113249,18 Z M5,9 L5,18 L7,18 L7,9 L5,9 Z M9,5 L9,18 L12,18 L12,5 L9,5 Z"/>
</svg>

<svg width="24" height="24" fill="none" xmlns="http://www.w3.org/2000/svg"><path d="m13.384 8.237 5.5 9.526 1.732-1-5.5-9.526-1.732 1Zm8.404 10.147A1 1 0 0 1 21 20H3a1 1 0 1 1 0-2V9a2 2 0 0 1 2-2h2V5a2 2 0 0 1 2-2h3a2 2 0 0 1 2 2v.572l.116-.067a2 2 0 0 1 2.732.732l5.5 9.526a2 2 0 0 1-.56 2.621ZM16.71 18 14 13.304V18h2.711ZM5 9v9h2V9H5Zm4-4v13h3V5H9Z" fill="#000"/></svg>
